steam/_inc/system.svg

<svg xmlns="http://www.w3.org/2000/svg"><path d="m252.975 57.348-35.643 52.706 29.197 26.921 61.806-46.259z" fill="#fff" fill-rule="evenodd"/><circle cx="293.671" cy="56.976" fill="#fff" r="44.538"/><g fill-rule="evenodd"><path d="m327.769 56.976c.03 26.249-28.366 42.688-51.112 29.59-10.582-6.093-17.098-17.38-17.084-29.59-.031-26.249 28.365-42.687 51.112-29.589 10.582 6.093 17.098 17.379 17.084 29.589z" fill="#141414"/><path d="m320.866 56.995c-.012 20.935-22.682 34.006-40.807 23.528-8.401-4.858-13.579-13.825-13.583-23.528-.013-20.936 22.642-34.034 40.778-23.577 8.427 4.86 13.618 13.849 13.612 23.577z" fill="#fff"/><path d="m249.575 131.702c.007 21.016-22.739 34.159-40.944 23.657-8.454-4.877-13.662-13.897-13.657-23.657-.008-21.017 22.738-34.16 40.942-23.657 8.455 4.877 13.662 13.896 13.659 23.657z" fill="#fff"/><path d="m242.656 131.702c0 16.167-16.985 26.272-30.574 18.188-6.306-3.752-10.191-10.684-10.191-18.188 0-16.168 16.986-26.272 30.575-18.189 6.306 3.752 10.19 10.685 10.19 18.189z" fill="#141414"/><path d="m74.76 60.381c.005 21.017-22.743 34.157-40.947 23.654-8.452-4.878-13.659-13.896-13.656-23.654-.004-21.016 22.743-34.157 40.946-23.652 8.452 4.876 13.659 13.894 13.657 23.652z" fill="#fff"/><path d="m67.955 60.381c.004 15.301-17.073 24.868-30.74 17.222-6.345-3.551-10.255-10.116-10.252-17.222-.005-15.301 17.073-24.868 30.738-17.222 6.347 3.551 10.255 10.118 10.254 17.222z" fill="#141414"/><rect fill="#fff" height="35.283" rx="13.681" transform="matrix(.925867 .377849 -.377849 .925867 .000009 0)" width="219.515" x="51.308" y="20.625"/></g><path d="m387.513 43.184v10.573c-2.48-1.227-4.901-2.154-7.26-2.778-2.361-.624-4.589-.937-6.688-.937-2.782 0-4.841.424-6.172 1.272-1.331.847-1.997 2.164-1.997 3.949 0 1.336.443 2.385 1.331 3.144.908.736 2.542 1.371 4.902 1.907l4.963 1.103c5.022 1.116 8.592 2.812 10.711 5.086 2.117 2.276 3.175 5.51 3.175 9.702 0 5.511-1.482 9.614-4.447 12.313-2.945 2.677-7.453 4.015-13.524 4.015-2.864 0-5.74-.302-8.624-.903-2.885-.602-5.769-1.495-8.654-2.677v-10.873c2.885 1.695 5.669 2.977 8.352 3.848 2.703.847 5.306 1.27 7.806 1.27 2.542 0 4.488-.468 5.84-1.405 1.351-.937 2.026-2.274 2.026-4.015 0-1.56-.463-2.765-1.391-3.613-.908-.847-2.734-1.606-5.476-2.275l-4.508-1.103c-4.519-1.071-7.828-2.778-9.925-5.12-2.078-2.341-3.116-5.498-3.116-9.469 0-4.972 1.452-8.799 4.357-11.476 2.904-2.675 7.079-4.014 12.526-4.014 2.482 0 5.033.213 7.654.636 2.623.401 5.336 1.014 8.139 1.84z" fill="#fff"/><path d="m399.471 41.612h41.633v9.736h-14.977v40.216h-11.649v-40.216h-15.007z" fill="#fff"/><path d="m451.216 41.612h31.436v9.736h-19.787v9.301h18.607v9.736h-18.607v11.442h20.454v9.737h-32.103z" fill="#fff"/><path d="m525.108 82.462h-18.215l-2.873 9.102h-11.71l16.732-49.952h13.888l16.732 49.952h-11.709zm-15.31-9.267h12.376l-6.173-19.874z" fill="#fff"/><path d="m549.743 41.612h14.827l10.286 26.732 10.348-26.732h14.796v49.952h-11.014v-36.537l-10.408 26.934h-7.383l-10.408-26.934v36.537h-11.044z" fill="#fff"/></svg>

<?xml version="1.0" encoding="utf-8"?>
<svg version="1.1" id="svg2" xmlns="http://www.w3.org/2000/svg">
  <path d="M 252.975 57.348 L 217.332 110.054 L 246.529 136.975 L 308.335 90.716 L 252.975 57.348 Z" id="path8078" style="fill-opacity: 1; fill-rule: evenodd; stroke: none; fill: rgb(255, 255, 255);"/>
  <circle r="44.538" cy="56.976" cx="293.671" id="path4144" style="opacity: 1; fill-opacity: 1; stroke: none; stroke-width: 0.2; stroke-miterlimit: 4; stroke-dasharray: none; stroke-opacity: 1; fill: rgb(255, 255, 255);"/>
  <path style="opacity: 1; fill-opacity: 1; fill-rule: evenodd; stroke: none; stroke-width: 7.53281; stroke-linecap: round; stroke-linejoin: bevel; stroke-miterlimit: 4; stroke-dasharray: none; stroke-dashoffset: 0; stroke-opacity: 1; fill: rgb(20, 20, 20);" id="path7107" d="M 327.769 56.976 C 327.799 83.225 299.403 99.664 276.657 86.566 C 266.075 80.473 259.559 69.186 259.573 56.976 C 259.542 30.727 287.938 14.289 310.685 27.387 C 321.267 33.48 327.783 44.766 327.769 56.976 Z"/>
  <path style="fill-opacity: 1; fill-rule: evenodd; stroke: none; fill: rgb(255, 255, 255);" id="path10018" d="M 320.866 56.995 C 320.854 77.93 298.184 91.001 280.059 80.523 C 271.658 75.665 266.48 66.698 266.476 56.995 C 266.463 36.059 289.118 22.961 307.254 33.418 C 315.681 38.278 320.872 47.267 320.866 56.995 Z"/>
  <path style="fill-opacity: 1; fill-rule: evenodd; stroke: none; stroke-width: 5.53849; stroke-linecap: round; stroke-linejoin: bevel; stroke-miterlimit: 4; stroke-dasharray: none; stroke-dashoffset: 0; stroke-opacity: 1; fill: rgb(255, 255, 255);" id="path5167" d="M 249.575 131.702 C 249.582 152.718 226.836 165.861 208.631 155.359 C 200.177 150.482 194.969 141.462 194.974 131.702 C 194.966 110.685 217.712 97.542 235.916 108.045 C 244.371 112.922 249.578 121.941 249.575 131.702 Z"/>
  <path style="fill-opacity: 1; fill-rule: evenodd; stroke: none; stroke-width: 5.53849; stroke-linecap: round; stroke-linejoin: bevel; stroke-miterlimit: 4; stroke-dasharray: none; stroke-dashoffset: 0; stroke-opacity: 1; fill: rgb(20, 20, 20);" id="path5167-9" d="M 242.656 131.702 C 242.656 147.869 225.671 157.974 212.082 149.89 C 205.776 146.138 201.891 139.206 201.891 131.702 C 201.891 115.534 218.877 105.43 232.466 113.513 C 238.772 117.265 242.656 124.198 242.656 131.702 Z"/>
  <path style="color: rgb(0, 0, 0); clip-rule: nonzero; display: inline; overflow: visible; visibility: visible; opacity: 1; isolation: auto; mix-blend-mode: normal; color-interpolation: sRGB; color-interpolation-filters: linearRGB; fill-opacity: 1; fill-rule: evenodd; stroke: none; stroke-width: 5.53849; stroke-linecap: round; stroke-linejoin: bevel; stroke-miterlimit: 4; stroke-dasharray: none; stroke-dashoffset: 0; stroke-opacity: 1; color-rendering: auto; image-rendering: auto; shape-rendering: auto; text-rendering: auto; fill: rgb(255, 255, 255);" id="path2252" d="M 74.76 60.381 C 74.765 81.398 52.017 94.538 33.813 84.035 C 25.361 79.157 20.154 70.139 20.157 60.381 C 20.153 39.365 42.9 26.224 61.103 36.729 C 69.555 41.605 74.762 50.623 74.76 60.381 Z"/>
  <path d="M 67.955 60.381 C 67.959 75.682 50.882 85.249 37.215 77.603 C 30.87 74.052 26.96 67.487 26.963 60.381 C 26.958 45.08 44.036 35.513 57.701 43.159 C 64.048 46.71 67.956 53.277 67.955 60.381 Z" id="path4188" style="color: rgb(0, 0, 0); clip-rule: nonzero; display: inline; overflow: visible; visibility: visible; opacity: 1; isolation: auto; mix-blend-mode: normal; color-interpolation: sRGB; color-interpolation-filters: linearRGB; fill-opacity: 1; fill-rule: evenodd; stroke: none; stroke-width: 5.53849; stroke-linecap: round; stroke-linejoin: bevel; stroke-miterlimit: 4; stroke-dasharray: none; stroke-dashoffset: 0; stroke-opacity: 1; color-rendering: auto; image-rendering: auto; shape-rendering: auto; text-rendering: auto; fill: rgb(20, 20, 20);"/>
  <rect width="219.515" height="35.283" rx="13.681" x="51.308" y="20.625" transform="matrix(0.925867, 0.377849, -0.377849, 0.925867, 0.000009, 0)" id="rect4196" style="fill-opacity: 1; fill-rule: evenodd; stroke: none; fill: rgb(255, 255, 255);"/>
  <path d="M 387.513 43.184 L 387.513 53.757 C 385.033 52.53 382.612 51.603 380.253 50.979 C 377.892 50.355 375.664 50.042 373.565 50.042 C 370.783 50.042 368.724 50.466 367.393 51.314 C 366.062 52.161 365.396 53.478 365.396 55.263 C 365.396 56.599 365.839 57.648 366.727 58.407 C 367.635 59.143 369.269 59.778 371.629 60.314 L 376.592 61.417 C 381.614 62.533 385.184 64.229 387.303 66.503 C 389.42 68.779 390.478 72.013 390.478 76.205 C 390.478 81.716 388.996 85.819 386.031 88.518 C 383.086 91.195 378.578 92.533 372.507 92.533 C 369.643 92.533 366.767 92.231 363.883 91.63 C 360.998 91.028 358.114 90.135 355.229 88.953 L 355.229 78.08 C 358.114 79.775 360.898 81.057 363.581 81.928 C 366.284 82.775 368.887 83.198 371.387 83.198 C 373.929 83.198 375.875 82.73 377.227 81.793 C 378.578 80.856 379.253 79.519 379.253 77.778 C 379.253 76.218 378.79 75.013 377.862 74.165 C 376.954 73.318 375.128 72.559 372.386 71.89 L 367.878 70.787 C 363.359 69.716 360.05 68.009 357.953 65.667 C 355.875 63.326 354.837 60.169 354.837 56.198 C 354.837 51.226 356.289 47.399 359.194 44.722 C 362.098 42.047 366.273 40.708 371.72 40.708 C 374.202 40.708 376.753 40.921 379.374 41.344 C 381.997 41.745 384.71 42.358 387.513 43.184 Z" style="fill-opacity: 1; fill: rgb(255, 255, 255);" id="path4150"/>
  <path d="M 399.471 41.612 L 441.104 41.612 L 441.104 51.348 L 426.127 51.348 L 426.127 91.564 L 414.478 91.564 L 414.478 51.348 L 399.471 51.348 L 399.471 41.612 Z" style="fill-opacity: 1; fill: rgb(255, 255, 255);" id="path4152"/>
  <path d="M 451.216 41.612 L 482.652 41.612 L 482.652 51.348 L 462.865 51.348 L 462.865 60.649 L 481.472 60.649 L 481.472 70.385 L 462.865 70.385 L 462.865 81.827 L 483.319 81.827 L 483.319 91.564 L 451.216 91.564 L 451.216 41.612 Z" style="fill-opacity: 1; fill: rgb(255, 255, 255);" id="path4154"/>
  <path d="M 525.108 82.462 L 506.893 82.462 L 504.02 91.564 L 492.31 91.564 L 509.042 41.612 L 522.93 41.612 L 539.662 91.564 L 527.953 91.564 L 525.108 82.462 Z M 509.798 73.195 L 522.174 73.195 L 516.001 53.321 L 509.798 73.195 Z" style="fill-opacity: 1; fill: rgb(255, 255, 255);" id="path4156"/>
  <path d="M 549.743 41.612 L 564.57 41.612 L 574.856 68.344 L 585.204 41.612 L 600 41.612 L 600 91.564 L 588.986 91.564 L 588.986 55.027 L 578.578 81.961 L 571.195 81.961 L 560.787 55.027 L 560.787 91.564 L 549.743 91.564 L 549.743 41.612 Z" style="fill-opacity: 1; fill: rgb(255, 255, 255);" id="path4158"/>
  <g id="g4215" transform="matrix(1.549143, 0, 0, 1.549143, 0, 0)">
    <g id="g4199">
      <g id="g4186"/>
    </g>
    <g id="g4206">
      <g id="g4191"/>
      <g id="g4195"/>
    </g>
  </g>
  <g transform="matrix(1.473188, 0, 0, 1.629013, 0, 0)" style="font-style:normal;font-variant:normal;font-weight:bold;font-stretch:normal;font-size:42.06233215px;line-height:125%;font-family:'Bitstream Vera Sans';-inkscape-font-specification:'Bitstream Vera Sans Bold';letter-spacing:2.79714489px;word-spacing:0px;fill:#171a21;fill-opacity:1;stroke:none;stroke-width:1px;stroke-linecap:butt;stroke-linejoin:miter;stroke-opacity:1" id="text4156"/>
</svg>
